actions/22/document-save.svg

<svg xmlns="http://www.w3.org/2000/svg" viewBox="0 0 22 22">
  <defs id="defs3051">
    <style type="text/css" id="current-color-scheme">
      .ColorScheme-Text {
        color:#eff0f1;
      }
      </style>
  </defs>
 <path 
    style="fill:currentColor;fill-opacity:1;stroke:none" 
    d="M 3 2.9980469 L 3 3 L 3 4 L 3 19 L 4 19 L 19 19 L 19 18 L 19 7 L 19 6.3007812 L 18.992188 6.3007812 L 19 6.2910156 L 15.707031 2.9980469 L 15.699219 3.0078125 L 15.699219 2.9980469 L 15 2.9980469 L 3 2.9980469 z M 4 4 L 7 4 L 7 8 L 7 9 L 15 9 L 15 8 L 15 4 L 15.292969 4 L 18 6.7070312 L 18 7 L 18 18 L 16 18 L 16 11 L 15 11 L 7 11 L 6 11 L 6 18 L 4 18 L 4 4 z M 8 4 L 11.900391 4 L 11.900391 8 L 8 8 L 8 4 z M 7 12 L 15 12 L 15 18 L 7 18 L 7 12 z "
    class="ColorScheme-Text"
    />  
</svg>

<svg xmlns="http://www.w3.org/2000/svg" viewBox="0 0 22 22">
  <defs id="defs3051">
<style type="text/css" id="current-color-scheme">.ColorScheme-Text {color:#fcfcfc;}</style>
  </defs>
 <path 
    style="fill:currentColor;fill-opacity:1;stroke:none" 
    d="M 8.858847,2.9980469 6,3 c 0,0 -3,0 -3,3 0,3 0,7 0,10 0,3 3,3 3,3 h 10 c 0,0 3,0 3,-3 0,-3 0,-9 0,-9 V 6.3007812 h -0.0078 L 19,6.2910156 15.707031,2.9980469 l -0.0078,0.00977 v -0.00977 H 15 Z M 6,4 h 1 v 4 1 h 8 V 8 4 h 0.292969 L 18,6.7070312 V 7 c 0,0 0,7 0,9 0,2 -2,2 -2,2 V 11 H 15 7 6 v 7 C 6,18 4,18 4,16 4,14 4,8 4,6 4,4 6,4 6,4 Z m 2,0 h 3.900391 V 8 H 8 Z m -1,8 h 8 v 6 H 7 Z"
    class="ColorScheme-Text"
    />  
</svg>
